svg/battery_clock.svg

<svg xmlns="http://www.w3.org/2000/svg" viewBox="0 0 24 24"><path d="m16.5 16.25 2.86 1.69-.75 1.22L15 17v-5h1.5zM23 16c0 3.87-3.13 7-7 7-1.31 0-2.54-.37-3.59-1H7.33C6.6 22 6 21.4 6 20.67V5.33C6 4.6 6.6 4 7.33 4H9V2h6v2h1.67C17.4 4 18 4.6 18 5.33v3.96c2.89.86 5 3.54 5 6.71m-2 0c0-2.76-2.24-5-5-5s-5 2.24-5 5 2.24 5 5 5 5-2.24 5-5"/></svg>

<svg xmlns="http://www.w3.org/2000/svg" id="mdi-battery-clock" viewBox="0 0 24 24"><path d="M16.5 16.25L19.36 17.94L18.61 19.16L15 17V12H16.5V16.25M23 16C23 19.87 19.87 23 16 23C14.69 23 13.46 22.63 12.41 22H7.33C6.6 22 6 21.4 6 20.67V5.33C6 4.6 6.6 4 7.33 4H9V2H15V4H16.67C17.4 4 18 4.6 18 5.33V9.29C20.89 10.15 23 12.83 23 16M21 16C21 13.24 18.76 11 16 11S11 13.24 11 16 13.24 21 16 21 21 18.76 21 16Z" /></svg>
